src/img/background.svg

<svg width="516" height="1032" fill="none" xmlns="http://www.w3.org/2000/svg"><path d="m86 43.002 43 43-43 43-43-43 43-43ZM86 129.002l43 43-43 43-43-43 43-43ZM86 215.002l43 43-43 43-43-43 43-43ZM86 301.002l43 43-43 43-43-43 43-43ZM86 387.002l43 43-43 43-43-43 43-43Z" fill="#6232B8" fill-opacity=".55"/><path d="m86 473.002 43 43-43 43-43-43 43-43ZM86 559.002l43 43-43 43-43-43 43-43ZM86 645.002l43 43-43 43-43-43 43-43ZM86 731.002l43 43-43 43-43-43 43-43ZM86 817.002l43 43-43 43-43-43 43-43ZM86 903.002l43 43-43 43-43-43 43-43ZM172 43.002l43 43-43 43-43-43 43-43ZM172 129.002l43 43-43 43-43-43 43-43ZM172 215.002l43 43-43 43-43-43 43-43ZM172 301.002l43 43-43 43-43-43 43-43ZM172 387.002l43 43-43 43-43-43 43-43Z" fill="#6232B8" fill-opacity=".55"/><path d="m172 473.002 43 43-43 43-43-43 43-43ZM172 559.002l43 43-43 43-43-43 43-43ZM172 645.002l43 43-43 43-43-43 43-43ZM172 731.002l43 43-43 43-43-43 43-43ZM172 817.002l43 43-43 43-43-43 43-43ZM172 903.002l43 43-43 43-43-43 43-43ZM258 43.002l43 43-43 43-43-43 43-43ZM258 129.002l43 43-43 43-43-43 43-43ZM258 215.002l43 43-43 43-43-43 43-43ZM258 301.002l43 43-43 43-43-43 43-43ZM258 387.002l43 43-43 43-43-43 43-43Z" fill="#6232B8" fill-opacity=".55"/><path d="m258 473.002 43 43-43 43-43-43 43-43ZM258 559.002l43 43-43 43-43-43 43-43ZM258 645.002l43 43-43 43-43-43 43-43ZM258 731.002l43 43-43 43-43-43 43-43ZM258 817.002l43 43-43 43-43-43 43-43ZM258 903.002l43 43-43 43-43-43 43-43ZM344 43.002l43 43-43 43-43-43 43-43ZM344 129.002l43 43-43 43-43-43 43-43ZM344 215.002l43 43-43 43-43-43 43-43ZM344 301.002l43 43-43 43-43-43 43-43ZM344 387.002l43 43-43 43-43-43 43-43Z" fill="#6232B8" fill-opacity=".55"/><path d="m344 473.002 43 43-43 43-43-43 43-43ZM344 559.002l43 43-43 43-43-43 43-43ZM344 645.002l43 43-43 43-43-43 43-43ZM344 731.002l43 43-43 43-43-43 43-43ZM344 817.002l43 43-43 43-43-43 43-43ZM344 903.002l43 43-43 43-43-43 43-43ZM430 43.002l43 43-43 43-43-43 43-43ZM516 43.002v86l-43-43 43-43ZM516 129.002v86l-43-43 43-43ZM516 215.002v86l-43-43 43-43ZM516 301.002v86l-43-43 43-43ZM516 387.002v86l-43-43 43-43Z" fill="#6232B8" fill-opacity=".55"/><path d="M516 473.002v86l-43-43 43-43ZM516 559.002v86l-43-43 43-43ZM516 645.002v86l-43-43 43-43ZM516 731.002v86l-43-43 43-43ZM516 817.002v86l-43-43 43-43ZM516 903.002v86l-43-43 43-43Z" fill="#6232B8" fill-opacity=".55"/><path d="M516 989v43h-43l43-43ZM473 1032h-86l43-42.998L473 1032ZM387 1032h-86l43-42.998L387 1032ZM301 1032h-86l43-42.998L301 1032ZM215 1032h-86l43-42.998L215 1032ZM129 1032H43l43-42.998L129 1032ZM43 1032H0v-43l43 43Z" fill="#6232B8" fill-opacity=".55"/><path d="M0 989.002v-86l43 43-43 43ZM0 817.002v-86l43 43-43 43ZM0 645.002v-86l43 43-43 43ZM0 473.002v-86l43 43-43 43ZM0 301.002v-86l43 43-43 43ZM0 129.002v-86l43 43-43 43ZM43 0h86L86 43 43 0ZM215 0h86l-43 43-43-43ZM387 0h86l-43 43-43-43ZM0 903.002v-86l43 43-43 43ZM0 731.002v-86l43 43-43 43Z" fill="#6232B8" fill-opacity=".55"/><path d="M0 559.002v-86l43 43-43 43ZM0 387.002v-86l43 43-43 43ZM0 215.002v-86l43 43-43 43ZM0 43.002v-43h43l-43 43ZM129 0h86l-43 43-43-43ZM301 0h86l-43 43-43-43ZM473 0h43v43L473 0Z" fill="#6232B8" fill-opacity=".55"/><path d="m43 .002 43 43-43 43-43-43 43-43Z" fill="#7E46E8" fill-opacity=".55"/><path d="m43 86.002 43 43-43 43-43-43 43-43ZM43 172.002l43 43-43 43-43-43 43-43ZM43 258.002l43 43-43 43-43-43 43-43ZM43 344.002l43 43-43 43-43-43 43-43Z" fill="#7E46E8" fill-opacity=".55"/><path d="m43 430.002 43 43-43 43-43-43 43-43ZM43 516.002l43 43-43 43-43-43 43-43ZM43 602.002l43 43-43 43-43-43 43-43ZM43 688.002l43 43-43 43-43-43 43-43ZM43 774.002l43 43-43 43-43-43 43-43ZM43 860.002l43 43-43 43-43-43 43-43ZM43 946.002l43 43L43 1032 0 989.002l43-43ZM129 .002l43 43-43 43-43-43 43-43Z" fill="#7E46E8" fill-opacity=".55"/><path d="m129 86.002 43 43-43 43-43-43 43-43ZM129 172.002l43 43-43 43-43-43 43-43ZM129 258.002l43 43-43 43-43-43 43-43ZM129 344.002l43 43-43 43-43-43 43-43Z" fill="#7E46E8" fill-opacity=".55"/><path d="m129 430.002 43 43-43 43-43-43 43-43ZM129 516.002l43 43-43 43-43-43 43-43ZM129 602.002l43 43-43 43-43-43 43-43ZM129 688.002l43 43-43 43-43-43 43-43ZM129 774.002l43 43-43 43-43-43 43-43ZM129 860.002l43 43-43 43-43-43 43-43ZM129 946.002l43 43L129 1032l-43-42.998 43-43ZM215 .002l43 43-43 43-43-43 43-43Z" fill="#7E46E8" fill-opacity=".55"/><path d="m215 86.002 43 43-43 43-43-43 43-43ZM215 172.002l43 43-43 43-43-43 43-43ZM215 258.002l43 43-43 43-43-43 43-43ZM215 344.002l43 43-43 43-43-43 43-43Z" fill="#7E46E8" fill-opacity=".55"/><path d="m215 430.002 43 43-43 43-43-43 43-43ZM215 516.002l43 43-43 43-43-43 43-43ZM215 602.002l43 43-43 43-43-43 43-43ZM215 688.002l43 43-43 43-43-43 43-43ZM215 774.002l43 43-43 43-43-43 43-43ZM215 860.002l43 43-43 43-43-43 43-43ZM215 946.002l43 43L215 1032l-43-42.998 43-43ZM301 .002l43 43-43 43-43-43 43-43Z" fill="#7E46E8" fill-opacity=".55"/><path d="m301 86.002 43 43-43 43-43-43 43-43ZM301 172.002l43 43-43 43-43-43 43-43ZM301 258.002l43 43-43 43-43-43 43-43ZM301 344.002l43 43-43 43-43-43 43-43Z" fill="#7E46E8" fill-opacity=".55"/><path d="m301 430.002 43 43-43 43-43-43 43-43ZM301 516.002l43 43-43 43-43-43 43-43ZM301 602.002l43 43-43 43-43-43 43-43ZM301 688.002l43 43-43 43-43-43 43-43ZM301 774.002l43 43-43 43-43-43 43-43ZM301 860.002l43 43-43 43-43-43 43-43ZM301 946.002l43 43L301 1032l-43-42.998 43-43ZM387 .002l43 43-43 43-43-43 43-43Z" fill="#7E46E8" fill-opacity=".55"/><path d="m387 86.002 43 43-43 43-43-43 43-43ZM387 172.002l43 43-43 43-43-43 43-43ZM387 258.002l43 43-43 43-43-43 43-43ZM387 344.002l43 43-43 43-43-43 43-43Z" fill="#7E46E8" fill-opacity=".55"/><path d="m387 430.002 43 43-43 43-43-43 43-43ZM387 516.002l43 43-43 43-43-43 43-43ZM387 602.002l43 43-43 43-43-43 43-43ZM387 688.002l43 43-43 43-43-43 43-43ZM387 774.002l43 43-43 43-43-43 43-43ZM387 860.002l43 43-43 43-43-43 43-43ZM387 946.002l43 43L387 1032l-43-42.998 43-43ZM473 .002l43 43-43 43-43-43 43-43Z" fill="#7E46E8" fill-opacity=".55"/><path d="m473 86.002 43 43-43 43-43-43 43-43ZM473 172.002l43 43-43 43-43-43 43-43ZM473 258.002l43 43-43 43-43-43 43-43ZM473 344.002l43 43-43 43-43-43 43-43Z" fill="#7E46E8" fill-opacity=".55"/><path d="m473 430.002 43 43-43 43-43-43 43-43ZM473 516.002l43 43-43 43-43-43 43-43ZM473 602.002l43 43-43 43-43-43 43-43ZM473 688.002l43 43-43 43-43-43 43-43ZM473 774.002l43 43-43 43-43-43 43-43ZM473 860.002l43 43-43 43-43-43 43-43ZM473 946.002l43 43L473 1032l-43-42.998 43-43Z" fill="#7E46E8" fill-opacity=".55"/><path d="m430 129.002 43 43-43 43-43-43 43-43ZM430 215.002l43 43-43 43-43-43 43-43ZM430 301.002l43 43-43 43-43-43 43-43ZM430 387.002l43 43-43 43-43-43 43-43Z" fill="#6232B8" fill-opacity=".55"/><path d="m430 473.002 43 43-43 43-43-43 43-43ZM430 559.002l43 43-43 43-43-43 43-43ZM430 645.002l43 43-43 43-43-43 43-43ZM430 731.002l43 43-43 43-43-43 43-43ZM430 817.002l43 43-43 43-43-43 43-43ZM430 903.002l43 43-43 43-43-43 43-43Z" fill="#6232B8" fill-opacity=".55"/></svg>

<svg width="516" height="1032" viewBox="0 0 516 1032" fill="none" xmlns="http://www.w3.org/2000/svg">
<path d="M86 43.002L129 86.002L86 129.002L43 86.002L86 43.002Z" fill="#6232B8" fill-opacity="0.55"/>
<path d="M86 129.002L129 172.002L86 215.002L43 172.002L86 129.002Z" fill="#6232B8" fill-opacity="0.55"/>
<path d="M86 215.002L129 258.002L86 301.002L43 258.002L86 215.002Z" fill="#6232B8" fill-opacity="0.55"/>
<path d="M86 301.002L129 344.002L86 387.002L43 344.002L86 301.002Z" fill="#6232B8" fill-opacity="0.55"/>
<path d="M86 387.002L129 430.002L86 473.002L43 430.002L86 387.002Z" fill="#6232B8" fill-opacity="0.55"/>
<path d="M86 473.002L129 516.002L86 559.002L43 516.002L86 473.002Z" fill="#6232B8" fill-opacity="0.55"/>
<path d="M86 559.002L129 602.002L86 645.002L43 602.002L86 559.002Z" fill="#6232B8" fill-opacity="0.55"/>
<path d="M86 645.002L129 688.002L86 731.002L43 688.002L86 645.002Z" fill="#6232B8" fill-opacity="0.55"/>
<path d="M86 731.002L129 774.002L86 817.002L43 774.002L86 731.002Z" fill="#6232B8" fill-opacity="0.55"/>
<path d="M86 817.002L129 860.002L86 903.002L43 860.002L86 817.002Z" fill="#6232B8" fill-opacity="0.55"/>
<path d="M86 903.002L129 946.002L86 989.002L43 946.002L86 903.002Z" fill="#6232B8" fill-opacity="0.55"/>
<path d="M172 43.002L215 86.002L172 129.002L129 86.002L172 43.002Z" fill="#6232B8" fill-opacity="0.55"/>
<path d="M172 129.002L215 172.002L172 215.002L129 172.002L172 129.002Z" fill="#6232B8" fill-opacity="0.55"/>
<path d="M172 215.002L215 258.002L172 301.002L129 258.002L172 215.002Z" fill="#6232B8" fill-opacity="0.55"/>
<path d="M172 301.002L215 344.002L172 387.002L129 344.002L172 301.002Z" fill="#6232B8" fill-opacity="0.55"/>
<path d="M172 387.002L215 430.002L172 473.002L129 430.002L172 387.002Z" fill="#6232B8" fill-opacity="0.55"/>
<path d="M172 473.002L215 516.002L172 559.002L129 516.002L172 473.002Z" fill="#6232B8" fill-opacity="0.55"/>
<path d="M172 559.002L215 602.002L172 645.002L129 602.002L172 559.002Z" fill="#6232B8" fill-opacity="0.55"/>
<path d="M172 645.002L215 688.002L172 731.002L129 688.002L172 645.002Z" fill="#6232B8" fill-opacity="0.55"/>
<path d="M172 731.002L215 774.002L172 817.002L129 774.002L172 731.002Z" fill="#6232B8" fill-opacity="0.55"/>
<path d="M172 817.002L215 860.002L172 903.002L129 860.002L172 817.002Z" fill="#6232B8" fill-opacity="0.55"/>
<path d="M172 903.002L215 946.002L172 989.002L129 946.002L172 903.002Z" fill="#6232B8" fill-opacity="0.55"/>
<path d="M258 43.002L301 86.002L258 129.002L215 86.002L258 43.002Z" fill="#6232B8" fill-opacity="0.55"/>
<path d="M258 129.002L301 172.002L258 215.002L215 172.002L258 129.002Z" fill="#6232B8" fill-opacity="0.55"/>
<path d="M258 215.002L301 258.002L258 301.002L215 258.002L258 215.002Z" fill="#6232B8" fill-opacity="0.55"/>
<path d="M258 301.002L301 344.002L258 387.002L215 344.002L258 301.002Z" fill="#6232B8" fill-opacity="0.55"/>
<path d="M258 387.002L301 430.002L258 473.002L215 430.002L258 387.002Z" fill="#6232B8" fill-opacity="0.55"/>
<path d="M258 473.002L301 516.002L258 559.002L215 516.002L258 473.002Z" fill="#6232B8" fill-opacity="0.55"/>
<path d="M258 559.002L301 602.002L258 645.002L215 602.002L258 559.002Z" fill="#6232B8" fill-opacity="0.55"/>
<path d="M258 645.002L301 688.002L258 731.002L215 688.002L258 645.002Z" fill="#6232B8" fill-opacity="0.55"/>
<path d="M258 731.002L301 774.002L258 817.002L215 774.002L258 731.002Z" fill="#6232B8" fill-opacity="0.55"/>
<path d="M258 817.002L301 860.002L258 903.002L215 860.002L258 817.002Z" fill="#6232B8" fill-opacity="0.55"/>
<path d="M258 903.002L301 946.002L258 989.002L215 946.002L258 903.002Z" fill="#6232B8" fill-opacity="0.55"/>
<path d="M344 43.002L387 86.002L344 129.002L301 86.002L344 43.002Z" fill="#6232B8" fill-opacity="0.55"/>
<path d="M344 129.002L387 172.002L344 215.002L301 172.002L344 129.002Z" fill="#6232B8" fill-opacity="0.55"/>
<path d="M344 215.002L387 258.002L344 301.002L301 258.002L344 215.002Z" fill="#6232B8" fill-opacity="0.55"/>
<path d="M344 301.002L387 344.002L344 387.002L301 344.002L344 301.002Z" fill="#6232B8" fill-opacity="0.55"/>
<path d="M344 387.002L387 430.002L344 473.002L301 430.002L344 387.002Z" fill="#6232B8" fill-opacity="0.55"/>
<path d="M344 473.002L387 516.002L344 559.002L301 516.002L344 473.002Z" fill="#6232B8" fill-opacity="0.55"/>
<path d="M344 559.002L387 602.002L344 645.002L301 602.002L344 559.002Z" fill="#6232B8" fill-opacity="0.55"/>
<path d="M344 645.002L387 688.002L344 731.002L301 688.002L344 645.002Z" fill="#6232B8" fill-opacity="0.55"/>
<path d="M344 731.002L387 774.002L344 817.002L301 774.002L344 731.002Z" fill="#6232B8" fill-opacity="0.55"/>
<path d="M344 817.002L387 860.002L344 903.002L301 860.002L344 817.002Z" fill="#6232B8" fill-opacity="0.55"/>
<path d="M344 903.002L387 946.002L344 989.002L301 946.002L344 903.002Z" fill="#6232B8" fill-opacity="0.55"/>
<path d="M430 43.002L473 86.002L430 129.002L387 86.002L430 43.002Z" fill="#6232B8" fill-opacity="0.55"/>
<path d="M516 43.002V90.002V129.002L473 86.002L516 43.002Z" fill="#6232B8" fill-opacity="0.55"/>
<path d="M516 129.002V176.002V215.002L473 172.002L516 129.002Z" fill="#6232B8" fill-opacity="0.55"/>
<path d="M516 215.002V262.002V301.002L473 258.002L516 215.002Z" fill="#6232B8" fill-opacity="0.55"/>
<path d="M516 301.002V348.002V387.002L473 344.002L516 301.002Z" fill="#6232B8" fill-opacity="0.55"/>
<path d="M516 387.002V434.002V473.002L473 430.002L516 387.002Z" fill="#6232B8" fill-opacity="0.55"/>
<path d="M516 473.002V520.002V559.002L473 516.002L516 473.002Z" fill="#6232B8" fill-opacity="0.55"/>
<path d="M516 559.002V606.002V645.002L473 602.002L516 559.002Z" fill="#6232B8" fill-opacity="0.55"/>
<path d="M516 645.002V692.002V731.002L473 688.002L516 645.002Z" fill="#6232B8" fill-opacity="0.55"/>
<path d="M516 731.002V778.002V817.002L473 774.002L516 731.002Z" fill="#6232B8" fill-opacity="0.55"/>
<path d="M516 817.002V864.002V903.002L473 860.002L516 817.002Z" fill="#6232B8" fill-opacity="0.55"/>
<path d="M516 903.002V950.002V989.002L473 946.002L516 903.002Z" fill="#6232B8" fill-opacity="0.55"/>
<path d="M516 989V1032H512H473L516 989Z" fill="#6232B8" fill-opacity="0.55"/>
<path d="M473 1032L426 1032L387 1032L430 989.002L473 1032Z" fill="#6232B8" fill-opacity="0.55"/>
<path d="M387 1032L340 1032L301 1032L344 989.002L387 1032Z" fill="#6232B8" fill-opacity="0.55"/>
<path d="M301 1032L254 1032L215 1032L258 989.002L301 1032Z" fill="#6232B8" fill-opacity="0.55"/>
<path d="M215 1032L168 1032L129 1032L172 989.002L215 1032Z" fill="#6232B8" fill-opacity="0.55"/>
<path d="M129 1032L82 1032L43 1032L86 989.002L129 1032Z" fill="#6232B8" fill-opacity="0.55"/>
<path d="M43.0005 1032L0.000486402 1032L0.000486489 1030L0.000488281 989L43.0005 1032Z" fill="#6232B8" fill-opacity="0.55"/>
<path d="M0.000488281 989.002L0.00049239 942.002L0.0004958 903.002L43.0005 946.002L0.000488281 989.002Z" fill="#6232B8" fill-opacity="0.55"/>
<path d="M0.000488281 817.002L0.00049239 770.002L0.0004958 731.002L43.0005 774.002L0.000488281 817.002Z" fill="#6232B8" fill-opacity="0.55"/>
<path d="M0.000488281 645.002L0.00049239 598.002L0.0004958 559.002L43.0005 602.002L0.000488281 645.002Z" fill="#6232B8" fill-opacity="0.55"/>
<path d="M0.000488281 473.002L0.00049239 426.002L0.0004958 387.002L43.0005 430.002L0.000488281 473.002Z" fill="#6232B8" fill-opacity="0.55"/>
<path d="M0.000488281 301.002L0.00049239 254.002L0.0004958 215.002L43.0005 258.002L0.000488281 301.002Z" fill="#6232B8" fill-opacity="0.55"/>
<path d="M0.000488281 129.002L0.00049239 82.0019L0.0004958 43.0019L43.0005 86.002L0.000488281 129.002Z" fill="#6232B8" fill-opacity="0.55"/>
<path d="M43.0005 0L90.0005 6.16331e-06L129 1.12775e-05L86.0005 43L43.0005 0Z" fill="#6232B8" fill-opacity="0.55"/>
<path d="M215 0L262 6.16331e-06L301 1.12775e-05L258 43L215 0Z" fill="#6232B8" fill-opacity="0.55"/>
<path d="M387 0L434 6.16331e-06L473 1.12775e-05L430 43L387 0Z" fill="#6232B8" fill-opacity="0.55"/>
<path d="M0.000488281 903.002L0.00049239 856.002L0.0004958 817.002L43.0005 860.002L0.000488281 903.002Z" fill="#6232B8" fill-opacity="0.55"/>
<path d="M0.000488281 731.002L0.00049239 684.002L0.0004958 645.002L43.0005 688.002L0.000488281 731.002Z" fill="#6232B8" fill-opacity="0.55"/>
<path d="M0.000488281 559.002L0.00049239 512.002L0.0004958 473.002L43.0005 516.002L0.000488281 559.002Z" fill="#6232B8" fill-opacity="0.55"/>
<path d="M0.000488281 387.002L0.00049239 340.002L0.0004958 301.002L43.0005 344.002L0.000488281 387.002Z" fill="#6232B8" fill-opacity="0.55"/>
<path d="M0.000488281 215.002L0.00049239 168.002L0.0004958 129.002L43.0005 172.002L0.000488281 215.002Z" fill="#6232B8" fill-opacity="0.55"/>
<path d="M0.000488281 43.0019L0.000488226 0.00195318L6.00049 0.00195371L43.0005 0.00195312L0.000488281 43.0019Z" fill="#6232B8" fill-opacity="0.55"/>
<path d="M129 0L176 6.16331e-06L215 1.12775e-05L172 43L129 0Z" fill="#6232B8" fill-opacity="0.55"/>
<path d="M301 0L348 6.16331e-06L387 1.12775e-05L344 43L301 0Z" fill="#6232B8" fill-opacity="0.55"/>
<path d="M473 0L516 1.82407e-06L516 7.5L516 43L473 0Z" fill="#6232B8" fill-opacity="0.55"/>
<path d="M43 0.00195312L86 43.002L43 86.002L0 43.002L43 0.00195312Z" fill="#7E46E8" fill-opacity="0.55"/>
<path d="M43 86.002L86 129.002L43 172.002L0 129.002L43 86.002Z" fill="#7E46E8" fill-opacity="0.55"/>
<path d="M43 172.002L86 215.002L43 258.002L0 215.002L43 172.002Z" fill="#7E46E8" fill-opacity="0.55"/>
<path d="M43 258.002L86 301.002L43 344.002L0 301.002L43 258.002Z" fill="#7E46E8" fill-opacity="0.55"/>
<path d="M43 344.002L86 387.002L43 430.002L0 387.002L43 344.002Z" fill="#7E46E8" fill-opacity="0.55"/>
<path d="M43 430.002L86 473.002L43 516.002L0 473.002L43 430.002Z" fill="#7E46E8" fill-opacity="0.55"/>
<path d="M43 516.002L86 559.002L43 602.002L0 559.002L43 516.002Z" fill="#7E46E8" fill-opacity="0.55"/>
<path d="M43 602.002L86 645.002L43 688.002L0 645.002L43 602.002Z" fill="#7E46E8" fill-opacity="0.55"/>
<path d="M43 688.002L86 731.002L43 774.002L0 731.002L43 688.002Z" fill="#7E46E8" fill-opacity="0.55"/>
<path d="M43 774.002L86 817.002L43 860.002L0 817.002L43 774.002Z" fill="#7E46E8" fill-opacity="0.55"/>
<path d="M43 860.002L86 903.002L43 946.002L0 903.002L43 860.002Z" fill="#7E46E8" fill-opacity="0.55"/>
<path d="M43 946.002L86 989.002L43 1032L0 989.002L43 946.002Z" fill="#7E46E8" fill-opacity="0.55"/>
<path d="M129 0.00195312L172 43.002L129 86.002L86 43.002L129 0.00195312Z" fill="#7E46E8" fill-opacity="0.55"/>
<path d="M129 86.002L172 129.002L129 172.002L86 129.002L129 86.002Z" fill="#7E46E8" fill-opacity="0.55"/>
<path d="M129 172.002L172 215.002L129 258.002L86 215.002L129 172.002Z" fill="#7E46E8" fill-opacity="0.55"/>
<path d="M129 258.002L172 301.002L129 344.002L86 301.002L129 258.002Z" fill="#7E46E8" fill-opacity="0.55"/>
<path d="M129 344.002L172 387.002L129 430.002L86 387.002L129 344.002Z" fill="#7E46E8" fill-opacity="0.55"/>
<path d="M129 430.002L172 473.002L129 516.002L86 473.002L129 430.002Z" fill="#7E46E8" fill-opacity="0.55"/>
<path d="M129 516.002L172 559.002L129 602.002L86 559.002L129 516.002Z" fill="#7E46E8" fill-opacity="0.55"/>
<path d="M129 602.002L172 645.002L129 688.002L86 645.002L129 602.002Z" fill="#7E46E8" fill-opacity="0.55"/>
<path d="M129 688.002L172 731.002L129 774.002L86 731.002L129 688.002Z" fill="#7E46E8" fill-opacity="0.55"/>
<path d="M129 774.002L172 817.002L129 860.002L86 817.002L129 774.002Z" fill="#7E46E8" fill-opacity="0.55"/>
<path d="M129 860.002L172 903.002L129 946.002L86 903.002L129 860.002Z" fill="#7E46E8" fill-opacity="0.55"/>
<path d="M129 946.002L172 989.002L129 1032L86 989.002L129 946.002Z" fill="#7E46E8" fill-opacity="0.55"/>
<path d="M215 0.00195312L258 43.002L215 86.002L172 43.002L215 0.00195312Z" fill="#7E46E8" fill-opacity="0.55"/>
<path d="M215 86.002L258 129.002L215 172.002L172 129.002L215 86.002Z" fill="#7E46E8" fill-opacity="0.55"/>
<path d="M215 172.002L258 215.002L215 258.002L172 215.002L215 172.002Z" fill="#7E46E8" fill-opacity="0.55"/>
<path d="M215 258.002L258 301.002L215 344.002L172 301.002L215 258.002Z" fill="#7E46E8" fill-opacity="0.55"/>
<path d="M215 344.002L258 387.002L215 430.002L172 387.002L215 344.002Z" fill="#7E46E8" fill-opacity="0.55"/>
<path d="M215 430.002L258 473.002L215 516.002L172 473.002L215 430.002Z" fill="#7E46E8" fill-opacity="0.55"/>
<path d="M215 516.002L258 559.002L215 602.002L172 559.002L215 516.002Z" fill="#7E46E8" fill-opacity="0.55"/>
<path d="M215 602.002L258 645.002L215 688.002L172 645.002L215 602.002Z" fill="#7E46E8" fill-opacity="0.55"/>
<path d="M215 688.002L258 731.002L215 774.002L172 731.002L215 688.002Z" fill="#7E46E8" fill-opacity="0.55"/>
<path d="M215 774.002L258 817.002L215 860.002L172 817.002L215 774.002Z" fill="#7E46E8" fill-opacity="0.55"/>
<path d="M215 860.002L258 903.002L215 946.002L172 903.002L215 860.002Z" fill="#7E46E8" fill-opacity="0.55"/>
<path d="M215 946.002L258 989.002L215 1032L172 989.002L215 946.002Z" fill="#7E46E8" fill-opacity="0.55"/>
<path d="M301 0.00195312L344 43.002L301 86.002L258 43.002L301 0.00195312Z" fill="#7E46E8" fill-opacity="0.55"/>
<path d="M301 86.002L344 129.002L301 172.002L258 129.002L301 86.002Z" fill="#7E46E8" fill-opacity="0.55"/>
<path d="M301 172.002L344 215.002L301 258.002L258 215.002L301 172.002Z" fill="#7E46E8" fill-opacity="0.55"/>
<path d="M301 258.002L344 301.002L301 344.002L258 301.002L301 258.002Z" fill="#7E46E8" fill-opacity="0.55"/>
<path d="M301 344.002L344 387.002L301 430.002L258 387.002L301 344.002Z" fill="#7E46E8" fill-opacity="0.55"/>
<path d="M301 430.002L344 473.002L301 516.002L258 473.002L301 430.002Z" fill="#7E46E8" fill-opacity="0.55"/>
<path d="M301 516.002L344 559.002L301 602.002L258 559.002L301 516.002Z" fill="#7E46E8" fill-opacity="0.55"/>
<path d="M301 602.002L344 645.002L301 688.002L258 645.002L301 602.002Z" fill="#7E46E8" fill-opacity="0.55"/>
<path d="M301 688.002L344 731.002L301 774.002L258 731.002L301 688.002Z" fill="#7E46E8" fill-opacity="0.55"/>
<path d="M301 774.002L344 817.002L301 860.002L258 817.002L301 774.002Z" fill="#7E46E8" fill-opacity="0.55"/>
<path d="M301 860.002L344 903.002L301 946.002L258 903.002L301 860.002Z" fill="#7E46E8" fill-opacity="0.55"/>
<path d="M301 946.002L344 989.002L301 1032L258 989.002L301 946.002Z" fill="#7E46E8" fill-opacity="0.55"/>
<path d="M387 0.00195312L430 43.002L387 86.002L344 43.002L387 0.00195312Z" fill="#7E46E8" fill-opacity="0.55"/>
<path d="M387 86.002L430 129.002L387 172.002L344 129.002L387 86.002Z" fill="#7E46E8" fill-opacity="0.55"/>
<path d="M387 172.002L430 215.002L387 258.002L344 215.002L387 172.002Z" fill="#7E46E8" fill-opacity="0.55"/>
<path d="M387 258.002L430 301.002L387 344.002L344 301.002L387 258.002Z" fill="#7E46E8" fill-opacity="0.55"/>
<path d="M387 344.002L430 387.002L387 430.002L344 387.002L387 344.002Z" fill="#7E46E8" fill-opacity="0.55"/>
<path d="M387 430.002L430 473.002L387 516.002L344 473.002L387 430.002Z" fill="#7E46E8" fill-opacity="0.55"/>
<path d="M387 516.002L430 559.002L387 602.002L344 559.002L387 516.002Z" fill="#7E46E8" fill-opacity="0.55"/>
<path d="M387 602.002L430 645.002L387 688.002L344 645.002L387 602.002Z" fill="#7E46E8" fill-opacity="0.55"/>
<path d="M387 688.002L430 731.002L387 774.002L344 731.002L387 688.002Z" fill="#7E46E8" fill-opacity="0.55"/>
<path d="M387 774.002L430 817.002L387 860.002L344 817.002L387 774.002Z" fill="#7E46E8" fill-opacity="0.55"/>
<path d="M387 860.002L430 903.002L387 946.002L344 903.002L387 860.002Z" fill="#7E46E8" fill-opacity="0.55"/>
<path d="M387 946.002L430 989.002L387 1032L344 989.002L387 946.002Z" fill="#7E46E8" fill-opacity="0.55"/>
<path d="M473 0.00195312L516 43.002L473 86.002L430 43.002L473 0.00195312Z" fill="#7E46E8" fill-opacity="0.55"/>
<path d="M473 86.002L516 129.002L473 172.002L430 129.002L473 86.002Z" fill="#7E46E8" fill-opacity="0.55"/>
<path d="M473 172.002L516 215.002L473 258.002L430 215.002L473 172.002Z" fill="#7E46E8" fill-opacity="0.55"/>
<path d="M473 258.002L516 301.002L473 344.002L430 301.002L473 258.002Z" fill="#7E46E8" fill-opacity="0.55"/>
<path d="M473 344.002L516 387.002L473 430.002L430 387.002L473 344.002Z" fill="#7E46E8" fill-opacity="0.55"/>
<path d="M473 430.002L516 473.002L473 516.002L430 473.002L473 430.002Z" fill="#7E46E8" fill-opacity="0.55"/>
<path d="M473 516.002L516 559.002L473 602.002L430 559.002L473 516.002Z" fill="#7E46E8" fill-opacity="0.55"/>
<path d="M473 602.002L516 645.002L473 688.002L430 645.002L473 602.002Z" fill="#7E46E8" fill-opacity="0.55"/>
<path d="M473 688.002L516 731.002L473 774.002L430 731.002L473 688.002Z" fill="#7E46E8" fill-opacity="0.55"/>
<path d="M473 774.002L516 817.002L473 860.002L430 817.002L473 774.002Z" fill="#7E46E8" fill-opacity="0.55"/>
<path d="M473 860.002L516 903.002L473 946.002L430 903.002L473 860.002Z" fill="#7E46E8" fill-opacity="0.55"/>
<path d="M473 946.002L516 989.002L473 1032L430 989.002L473 946.002Z" fill="#7E46E8" fill-opacity="0.55"/>
<path d="M430 129.002L473 172.002L430 215.002L387 172.002L430 129.002Z" fill="#6232B8" fill-opacity="0.55"/>
<path d="M430 215.002L473 258.002L430 301.002L387 258.002L430 215.002Z" fill="#6232B8" fill-opacity="0.55"/>
<path d="M430 301.002L473 344.002L430 387.002L387 344.002L430 301.002Z" fill="#6232B8" fill-opacity="0.55"/>
<path d="M430 387.002L473 430.002L430 473.002L387 430.002L430 387.002Z" fill="#6232B8" fill-opacity="0.55"/>
<path d="M430 473.002L473 516.002L430 559.002L387 516.002L430 473.002Z" fill="#6232B8" fill-opacity="0.55"/>
<path d="M430 559.002L473 602.002L430 645.002L387 602.002L430 559.002Z" fill="#6232B8" fill-opacity="0.55"/>
<path d="M430 645.002L473 688.002L430 731.002L387 688.002L430 645.002Z" fill="#6232B8" fill-opacity="0.55"/>
<path d="M430 731.002L473 774.002L430 817.002L387 774.002L430 731.002Z" fill="#6232B8" fill-opacity="0.55"/>
<path d="M430 817.002L473 860.002L430 903.002L387 860.002L430 817.002Z" fill="#6232B8" fill-opacity="0.55"/>
<path d="M430 903.002L473 946.002L430 989.002L387 946.002L430 903.002Z" fill="#6232B8" fill-opacity="0.55"/>
</svg>
